X: 1
C: Muse
T: Unintended
Z: Dean Turpin 2017
M: 4/4
L: 4/4
K: E
"E" [EGB] | "E" [EGB] | "B" [B,DF] | "B" [B,DF]
|: "E" [EGB] | "Am" [A=ce] | "D" [DFA] | "G" [GBd]
"C" [CEG] | "B" [B,DF] | "E" [EGB] | "E" [EGB] :|
